gama.ui.shared/icons_svg/light/views/open.browser.svg

<svg height="25" viewBox="-752.5 -3407.468 25 25" width="25" xmlns="http://www.w3.org/2000/svg"><g fill="none"><path d="m-748.16-3406.968h16.32c2.1208 0 3.84 1.719 3.84 3.84v16.32c0 2.1207-1.7192 3.84-3.84 3.84h-16.32c-2.1208 0-3.84-1.7193-3.84-3.84v-16.32c0-2.121 1.7192-3.84 3.84-3.84z" fill="#fff"/><path d="m-748.16-3406.968h16.32c2.1208 0 3.84 1.719 3.84 3.84v16.32c0 2.1207-1.7192 3.84-3.84 3.84h-16.32c-2.1208 0-3.84-1.7193-3.84-3.84v-16.32c0-2.121 1.7192-3.84 3.84-3.84z" stroke="#000" stroke-linecap="round" stroke-linejoin="round" stroke-width=".25"/><path d="m-737.3333-3393.1903v-3.5557h-5.33336v3.5557zm0 .8889h-5.33336v3.5554h5.33336zm-9.7778-.8889h3.5556v-3.5557h-3.5556zm0 .8889v2.2224c0 .7376.5956 1.333 1.3333 1.333h2.2223v-3.5554zm14.2222-.8889v-3.5557h-3.5555v3.5557zm0 .8889h-3.5555v3.5554h2.2222c.73775 0 1.3333-.5954 1.3333-1.333zm-4.4444-5.3333v-3.5556h-5.33336v3.5556zm-9.7778 0h3.5556v-3.5556h-2.2223c-.7377 0-1.3333.5956-1.3333 1.3333zm14.2222 0v-2.2223c0-.7377-.59555-1.3333-1.3333-1.3333h-2.2222v3.5556zm-12.8889-4.4443h11.5556c1.2266 0 2.2222.9954 2.2222 2.222v9.778c0 1.2265-.9956 2.222-2.2222 2.222h-11.5556c-1.2266 0-2.2222-.9955-2.2222-2.222v-9.778c0-1.2266.9956-2.222 2.2222-2.222z" fill="#5c76a1"/></g></svg>

<?xml version="1.0" encoding="UTF-8" standalone="no"?>
<!DOCTYPE svg PUBLIC "-//W3C//DTD SVG 1.1//EN" "http://www.w3.org/Graphics/SVG/1.1/DTD/svg11.dtd">
<svg version="1.1" xmlns="http://www.w3.org/2000/svg" xmlns:xl="http://www.w3.org/1999/xlink" xmlns:dc="http://purl.org/dc/elements/1.1/" viewBox="-752.5 -3407.468 25 25" width="25" height="25">
  <defs/>
  <g id="SOURCES" stroke-dasharray="none" fill="none" stroke="none" fill-opacity="1" stroke-opacity="1">
    <title>SOURCES</title>
    <g id="SOURCES_Calque_2">
      <title>Calque 2</title>
      <g id="Group_9738">
        <g id="Graphic_9734">
          <path d="M -748.16 -3406.968 L -731.84 -3406.968 C -729.7192 -3406.968 -728 -3405.249 -728 -3403.128 L -728 -3386.808 C -728 -3384.6873 -729.7192 -3382.968 -731.84 -3382.968 L -748.16 -3382.968 C -750.2808 -3382.968 -752 -3384.6873 -752 -3386.808 L -752 -3403.128 C -752 -3405.249 -750.2808 -3406.968 -748.16 -3406.968 Z" fill="white"/>
          <path d="M -748.16 -3406.968 L -731.84 -3406.968 C -729.7192 -3406.968 -728 -3405.249 -728 -3403.128 L -728 -3386.808 C -728 -3384.6873 -729.7192 -3382.968 -731.84 -3382.968 L -748.16 -3382.968 C -750.2808 -3382.968 -752 -3384.6873 -752 -3386.808 L -752 -3403.128 C -752 -3405.249 -750.2808 -3406.968 -748.16 -3406.968 Z" stroke="black" stroke-linecap="round" stroke-linejoin="round" stroke-width=".25"/>
        </g>
        <g id="Group_9735">
          <title>table</title>
          <g id="Graphic_9736">
            <path d="M -737.3333 -3393.1903 L -737.3333 -3396.746 L -742.66666 -3396.746 L -742.66666 -3393.1903 Z M -737.3333 -3392.3014 L -742.66666 -3392.3014 L -742.66666 -3388.746 L -737.3333 -3388.746 Z M -747.1111 -3393.1903 L -743.5555 -3393.1903 L -743.5555 -3396.746 L -747.1111 -3396.746 Z M -747.1111 -3392.3014 L -747.1111 -3390.079 C -747.1111 -3389.3414 -746.5155 -3388.746 -745.7778 -3388.746 L -743.5555 -3388.746 L -743.5555 -3392.3014 Z M -732.8889 -3393.1903 L -732.8889 -3396.746 L -736.4444 -3396.746 L -736.4444 -3393.1903 Z M -732.8889 -3392.3014 L -736.4444 -3392.3014 L -736.4444 -3388.746 L -734.2222 -3388.746 C -733.48445 -3388.746 -732.8889 -3389.3414 -732.8889 -3390.079 Z M -737.3333 -3397.6347 L -737.3333 -3401.1903 L -742.66666 -3401.1903 L -742.66666 -3397.6347 Z M -747.1111 -3397.6347 L -743.5555 -3397.6347 L -743.5555 -3401.1903 L -745.7778 -3401.1903 C -746.5155 -3401.1903 -747.1111 -3400.5947 -747.1111 -3399.857 Z M -732.8889 -3397.6347 L -732.8889 -3399.857 C -732.8889 -3400.5947 -733.48445 -3401.1903 -734.2222 -3401.1903 L -736.4444 -3401.1903 L -736.4444 -3397.6347 Z M -745.7778 -3402.079 L -734.2222 -3402.079 C -732.9956 -3402.079 -732 -3401.0836 -732 -3399.857 L -732 -3390.079 C -732 -3388.8525 -732.9956 -3387.857 -734.2222 -3387.857 L -745.7778 -3387.857 C -747.0044 -3387.857 -748 -3388.8525 -748 -3390.079 L -748 -3399.857 C -748 -3401.0836 -747.0044 -3402.079 -745.7778 -3402.079 Z" fill="#5c76a1"/>
          </g>
        </g>
      </g>
    </g>
  </g>
</svg>
